X: 332
T:Whose
% Nottingham Music Database
S:Country Dance Manual, via EF
Y:AB
M:6/8
K:G
P:A
(3D/2E/2F/2|"G"G2G "D7"FEF|"G"G3 D2D|"C"E2E c2B|"D"A3 A2D|"C"E2c cBc|\
"G"d2B "Em"G2E|"Am"D2c "D7"B2A|"G"G3 G2:|
P:B
B/2c/2|"G"d2d ded|"A7"^c3 A2B|"D7"c2c cdc|"G"B3 Bcd|"C"e2c "D7"Ace|\
"G"d2B "Em"G2E|"Am"D2c "D7"B2A|"G"G3 G2:|


